!!!COM: Palestrina, Giovanni Perluigi da
!!!OPR: Missa In duplicibus minoribus (I)
!!!OMD: Credo
!!!OTL: Genitum
**kern	**kern	**kern	**kern	**kern
*Ibass	*Itenor	*Itenor	*Icalto	*Icant
!Bassus	!Tenor 2	!Tenor 1	!Altus	!Cantus
*clefF4	*clefGv2	*clefGv2	*clefG2	*clefG2
*k[]	*k[]	*k[]	*k[]	*k[]
*E:phr	*E:phr	*E:phr	*E:phr	*E:phr
*M4/2	*M4/2	*M4/2	*M4/2	*M4/2
=42	=42	=42	=42	=42
1.E	0r	1r	0r	0r
.	.	[1B	.	.
2D	.	.	.	.
=43	=43	=43	=43	=43
2E	0r	2B]	1r	0r
2F	.	2A	.	.
2.E	.	2B	[1e	.
.	.	2c	.	.
4D	.	.	.	.
=44	=44	=44	=44	=44
4E	0r	2.B	2e]	0r
4F	.	.	.	.
1G	.	.	2d	.
.	.	4A	.	.
.	.	4B	2e	.
.	.	4c	.	.
2F	.	[2d	2f	.
=45	=45	=45	=45	=45
1A	0r	2d]	2.e	0r
.	.	1c	.	.
.	.	.	8d	.
.	.	.	8c	.
1G	.	.	1d	.
.	.	2B	.	.
=46	=46	=46	=46	=46
1A	2r	1c	2c	1r
.	1c	.	1A	.
[1AA	.	1r	.	[1e
.	2c	.	2A	.
=47	=47	=47	=47	=47
1AA]	2A	0r	2c	2e]
.	2A	.	2c	2e
1r	2.G	.	2d	2g
.	.	.	2e	2g
.	8F	.	.	.
.	8E	.	.	.
=48	=48	=48	=48	=48
0r	2D	1.A	2f	2a
.	2C	.	1e	2e
.	1D	.	.	1f
.	.	2A	2d	.
=49	=49	=49	=49	=49
0r	1A	2c	2e	2.e
.	.	2c	2A	.
.	.	.	.	4f
.	2G	2d	2B	2g
.	2F	2A	4c	[2a
.	.	.	4d	.
=50	=50	=50	=50	=50
1r	1E	1B	1e	2a]
.	.	.	.	2g#
2r	2r	1A	1e	2.a
[2A	[2c	.	.	.
.	.	.	.	8g
.	.	.	.	8f
=51	=51	=51	=51	=51
2A]	2c]	1r	0r	0e
2G	2B	.	.	.
1A	1c	2r	.	.
.	.	[2e	.	.
=52	=52	=52	=52	=52
2G	2B	2e]	0r	2r
2F	2A	2d	.	1a
1E	2B	1e	.	.
.	2B	.	.	2g
=53	=53	=53	=53	=53
1F	1A	2d	1r	1a
.	.	2c	.	.
2G	1r	2B	1d	2g
2D	.	2A	.	2f
=54	=54	=54	=54	=54
2.E	0r	4G	1g	1e
.	.	8A	.	.
.	.	8B	.	.
.	.	1c	.	.
4F	.	.	.	.
1G	.	.	2.g	1d
.	.	2B	.	.
.	.	.	4g	.
=55	=55	=55	=55	=55
2.C	2r	1c	1g	1e
.	1e	.	.	.
4D	.	.	.	.
2E	.	2B	2r	1r
2F	2d	2A	[2a	.
=56	=56	=56	=56	=56
1E	1e	1B	2a]	0r
.	.	.	2g	.
1F	2d	1A	1a	.
.	2c	.	.	.
=57	=57	=57	=57	=57
2G	2B	0r	2g	2r
1D	2A	.	1f	1a
.	1B	.	.	.
2E	.	.	[2e	2g
=58	=58	=58	=58	=58
1F	1A	2r	4e]	2.a
.	.	.	4d	.
.	.	1A	4d	.
.	.	.	8c	4b
.	.	.	8d	.
1E	2r	.	[1e	2cc
.	2B	2G	.	2b
=59	=59	=59	=59	=59
0AA	2.c	2.A	1e]	2a
.	.	.	.	1a
.	4B	4B	.	.
.	1A	1c	1e	.
.	.	.	.	2a
=60	=60	=60	=60	=60
[0E	[0G#	[0B	[0e	[0b
=61	=61	=61	=61	=61
0E]	0G#]	0B]	0e]	0b]
*-	*-	*-	*-	*-
!!!CDT: 1525/^1526/-1594/2/2
!!!OCY: Italia
!!!AGN: Mass (Paraphrase)
!!!AST: renaissance, vocal
!!!ASW: Gregorian Mass
!!!PWK: Masses, Book Mantuan I
!!!RNB: Cadence finals: A
!!!YOR: Le Opere Complete, v. 18, p. 42
!!!YOO: Rome, Italy: Fratelli Scalera
!!!END: 1992//
!!!EED: John Miller
!!!YEC: Copyright 2000, John Miller
!!!YEN: United States of America
!!!YEM: Rights to all derivative electronic formats reserved.
!!!YEM: Refer to licensing agreement for further details.
!!!YEM: This file must be accompanied by the licensing agreement.
!!!YEM: A copy of the licensing agreement may be found at http://www.music-cog.ohio-state.edu/HumdrumDatabases/Palestrina/license.txt
!!!EMD: converted to Humdrum by Bret Aarden
